src/icons/svg/VisArea.svg

<svg width="24" height="24" viewBox="0 0 24 24" fill="none" xmlns="http://www.w3.org/2000/svg">
<path d="M23.872 23.872H0.127014V0.126999H23.872V23.872ZM0.894014 23.106H23.107V0.892999H0.894014V23.106V23.106Z" fill="#1C2125"/>
<path d="M21.191 5.106L16.595 7.404L11.999 14.298L7.40301 12L2.80701 14.298V21.192H21.19V5.107L21.191 5.106Z" fill="#1C2125"/>
</svg>

<!-- Generated by IcoMoon.io -->
<svg version="1.1" xmlns="http://www.w3.org/2000/svg" width="24" height="24" viewBox="0 0 24 24">
<title>vis-area</title>
<path fill="#444" d="M23.872 23.872h-23.745v-23.745h23.745v23.745zM0.894 23.106h22.213v-22.213h-22.213v22.213z"></path>
<path fill="#444" d="M21.191 5.106l-4.596 2.298-4.596 6.894-4.596-2.298-4.596 2.298v6.894h18.383v-16.085z"></path>
</svg>
